X:976
T:Carrigaline
T:Steeplechase
T:Rock of Cashel, The
O:england
R:reel
D:Frankie Gavin: Frankie Goes to Town
M:C|
K:C
c2CD EG~G2|Addc dfed|c2cA GAcA|GAGE DCA,C|
G,C~C2 EG~G2|Addc dfed|c2cA GAcA|GEDG ECC2:|
|:c2ec gceg|gedc AGAB|c2ec gcec|Addc dfed|
c2ec gceg|gedc ABcd|eg~g2 ea~a2|1 gedc AGAB:|2 "variation"gedf ec (3G,A,B,||
